X: 1
T: Leitrim Rovers
M: 4/4
L: 1/8
R: reel
K: Edor
~E2FE B,EFE|BEFE dBAF|D2A,B, DEFA|BFAF DE(3FED|
~E2FE BEFE|B,EFE dBAF|DEFA d2fe|1 dBAF ~E2FD:|2 dBAF E3A||
|:Be~e2 dfed|BdAB dBAF|E2FE BEFA|~B2AF DEFA|
Be~e2 dfed|BdAG FDFA|B2Bd BAFE|1 DE(3FED E3A:|2 DEFD B4||
